Adwaita++-Dark/actions/16/edit-bomb.svg

<svg height="16" viewBox="0 0 16 16" width="16" xmlns="http://www.w3.org/2000/svg">
  <path d="m15 1c-.989.2035-1.907219.7820875-2.449219 1.6171875-.188-.0842-.330781-.1171875-.550781-.1171875-.156 0-.304312.0302187-.445312.0742188-.279.1042-.52386.2171312-.75586.3320312a6.5 6.5 0 0 0 -3.298828-.90625 6.5 6.5 0 0 0 -6.5 6.5 6.5 6.5 0 0 0 6.5 6.5 6.5 6.5 0 0 0 6.5-6.5 6.5 6.5 0 0 0 -.792969-3.0996094c.088-.2879.16375-.5996781.21875-.9550781.044-.1415.074219-.2889125.074219-.4453125 0-.336-.010312-.4712031-.195312-.7207031.400999-.6538.937312-1.0823969 1.695312-1.2792969z" fill="#e6ddff"/>
</svg>

<svg xmlns="http://www.w3.org/2000/svg" width="16" height="16" viewBox="0 0 16 16">
 <defs>
  <style id="current-color-scheme" type="text/css">
   .ColorScheme-Text { color:#E6DDFF; } .ColorScheme-Highlight { color:#4285f4; }
  </style>
 </defs>
 <path style="fill:currentColor" class="ColorScheme-Text" d="M 15 1 C 14.011 1.2035 13.092781 1.7820875 12.550781 2.6171875 C 12.362781 2.5329875 12.22 2.5 12 2.5 C 11.844 2.5 11.695688 2.5302187 11.554688 2.5742188 C 11.275688 2.6784188 11.030828 2.79135 10.798828 2.90625 A 6.5 6.5 0 0 0 7.5 2 A 6.5 6.5 0 0 0 1 8.5 A 6.5 6.5 0 0 0 7.5 15 A 6.5 6.5 0 0 0 14 8.5 A 6.5 6.5 0 0 0 13.207031 5.4003906 C 13.295031 5.1124906 13.370781 4.8007125 13.425781 4.4453125 C 13.469781 4.3038125 13.5 4.1564 13.5 4 C 13.5 3.664 13.489688 3.5287969 13.304688 3.2792969 C 13.705687 2.6254969 14.242 2.1969 15 2 L 15 1 z"/>
</svg>
